X: 27471
T: Molly On The Shore
R: reel
M: 4/4
K: Adorian
|:a|A2AB e2dB|e2dB GABG|A2AB edef|gedB A2 A:|
B|Aaag a2ef|gedB GABG|Aaag a2ea|gedB AAAB|
Aaag a2ef|gedB GABG|AAAB edef|gedB A2 A||

